assets/icons/network/error.svg

<?xml version="1.0" encoding="UTF-8" standalone="no"?>
<svg
   viewBox="0 0 24 24"
   height="24"
   id="svg7384"
   version="1.1"
   width="24"
   sodipodi:docname="error.svg"
   inkscape:version="1.2 (1:1.2.1+202207142221+cd75a1ee6d)"
   xmlns:inkscape="http://www.inkscape.org/namespaces/inkscape"
   xmlns:sodipodi="http://sodipodi.sourceforge.net/DTD/sodipodi-0.dtd"
   xmlns="http://www.w3.org/2000/svg"
   xmlns:svg="http://www.w3.org/2000/svg"
   xmlns:rdf="http://www.w3.org/1999/02/22-rdf-syntax-ns#"
   xmlns:cc="http://creativecommons.org/ns#"
   xmlns:dc="http://purl.org/dc/elements/1.1/">
  <sodipodi:namedview
     id="namedview22"
     pagecolor="#ffffff"
     bordercolor="#666666"
     borderopacity="1.0"
     inkscape:pageshadow="2"
     inkscape:pageopacity="0.0"
     inkscape:pagecheckerboard="0"
     showgrid="true"
     inkscape:zoom="32"
     inkscape:cx="24.28125"
     inkscape:cy="14.1875"
     inkscape:window-width="1920"
     inkscape:window-height="1043"
     inkscape:window-x="0"
     inkscape:window-y="0"
     inkscape:window-maximized="1"
     inkscape:current-layer="svg7384"
     inkscape:showpageshadow="2"
     inkscape:deskcolor="#d1d1d1">
    <inkscape:grid
       type="xygrid"
       id="grid14" />
  </sodipodi:namedview>
  <metadata
     id="metadata20854">
    <rdf:RDF>
      <cc:Work
         rdf:about="">
        <dc:format>image/svg+xml</dc:format>
        <dc:type
           rdf:resource="http://purl.org/dc/dcmitype/StillImage" />
      </cc:Work>
    </rdf:RDF>
  </metadata>
  <defs
     id="defs7386">
    <linearGradient
       id="linearGradient5606"
       inkscape:swatch="solid">
      <stop
         id="stop5608"
         offset="0"
         style="stop-color:#000000;stop-opacity:1;" />
    </linearGradient>
    <linearGradient
       id="linearGradient4526"
       inkscape:swatch="solid">
      <stop
         id="stop4528"
         offset="0"
         style="stop-color:#ffffff;stop-opacity:1;" />
    </linearGradient>
    <linearGradient
       id="linearGradient3600-4"
       inkscape:swatch="gradient">
      <stop
         id="stop3602-7"
         offset="0"
         style="stop-color:#f4f4f4;stop-opacity:1" />
      <stop
         id="stop3604-6"
         offset="1"
         style="stop-color:#dbdbdb;stop-opacity:1" />
    </linearGradient>
  </defs>
  <path
     id="path1302"
     style="color:#000000;font-style:normal;font-variant:normal;font-weight:normal;font-stretch:normal;font-size:medium;line-height:normal;font-family:sans-serif;font-variant-ligatures:normal;font-variant-position:normal;font-variant-caps:normal;font-variant-numeric:normal;font-variant-alternates:normal;font-feature-settings:normal;text-indent:0;text-align:start;text-decoration:none;text-decoration-line:none;text-decoration-style:solid;text-decoration-color:#000000;letter-spacing:normal;word-spacing:normal;text-transform:none;writing-mode:lr-tb;direction:ltr;text-orientation:mixed;dominant-baseline:auto;baseline-shift:baseline;text-anchor:start;white-space:normal;shape-padding:0;clip-rule:nonzero;display:inline;overflow:visible;visibility:visible;opacity:1;isolation:auto;mix-blend-mode:normal;color-interpolation:sRGB;color-interpolation-filters:linearRGB;solid-color:#000000;solid-opacity:1;fill:#808080;fill-opacity:1;fill-rule:evenodd;stroke:none;stroke-width:1;stroke-linecap:butt;stroke-linejoin:miter;stroke-miterlimit:4;stroke-dasharray:none;stroke-dashoffset:0;stroke-opacity:1;color-rendering:auto;image-rendering:auto;shape-rendering:auto;text-rendering:auto;enable-background:accumulate"
     d="M 12 2 A 10 10 0 0 0 2 12 A 10 10 0 0 0 12 22 A 10 10 0 0 0 14.042969 21.763672 A 5.5 5.5 0 0 1 13.197266 20.90625 A 9 9 0 0 1 12 21 A 9 9 0 0 1 3 12 A 9 9 0 0 1 12 3 A 9 9 0 0 1 21 12 A 9 9 0 0 1 20.90625 13.183594 A 5.5 5.5 0 0 1 21.765625 14.03125 A 10 10 0 0 0 22 12 A 10 10 0 0 0 12 2 z M 8.5839844 4.0410156 A 8.6874997 8.6874997 0 0 0 7.4414062 4.6367188 C 7.3401141 6.154856 7.3107262 7.6518975 7.3710938 9.1113281 C 7.6352932 8.9687035 7.9314006 8.8789064 8.25 8.8789062 C 8.3767123 8.8789062 8.5010564 8.8956709 8.6210938 8.9199219 C 8.5597188 7.3464873 8.5837819 5.722956 8.7226562 4.0527344 L 8.5839844 4.0410156 z M 8.2460938 4.1152344 A 8.75 8.75 0 0 0 7.8867188 4.2929688 C 8.0048434 4.2304048 8.1252026 4.1723307 8.2460938 4.1152344 z M 16.121094 4.3710938 C 16.096954 5.2887108 16.012604 6.1942551 15.869141 7.0859375 C 16.031301 7.0396875 16.198975 7.0058594 16.375 7.0058594 C 16.642562 7.0058594 16.895492 7.0651438 17.126953 7.1679688 C 17.228741 6.5106822 17.29469 5.8451576 17.339844 5.1738281 A 8.6874997 8.6874997 0 0 0 16.121094 4.3710938 z M 4.5488281 7.5878906 A 8.6874997 8.6874997 0 0 0 3.984375 8.7246094 C 4.7203939 9.2340312 5.469423 9.7413964 6.2480469 10.240234 C 5.2459745 10.654555 4.2816497 11.166137 3.3359375 11.736328 A 8.6874997 8.6874997 0 0 0 3.3144531 12 A 8.6874997 8.6874997 0 0 0 3.4042969 13.140625 C 4.4106013 12.496192 5.4561633 11.954209 6.5390625 11.5 C 6.4363127 11.26955 6.3749125 11.016813 6.375 10.75 C 6.3748 10.153252 6.6658852 9.6245117 7.1074219 9.28125 C 6.2336426 8.7274307 5.3828661 8.1591219 4.5488281 7.5878906 z M 16.375 7.6308594 A 1.25 1.2446897 0 0 0 15.125 8.875 A 1.25 1.2446897 0 0 0 16.375 10.121094 A 1.25 1.2446897 0 0 0 17.625 8.875 A 1.25 1.2446897 0 0 0 16.375 7.6308594 z M 4.3144531 7.8476562 A 8.75 8.75 0 0 0 4.1777344 8.0957031 C 4.2205152 8.0110533 4.2689356 7.9308812 4.3144531 7.8476562 z M 19.628906 7.8789062 C 19.083527 7.9018722 18.528757 7.9153318 17.992188 7.9472656 C 18.152549 8.2222528 18.250112 8.5364631 18.25 8.875 C 18.250037 8.9808748 18.236 9.0843346 18.21875 9.1855469 C 18.856776 9.1491099 19.520538 9.1323529 20.173828 9.1074219 A 8.6874997 8.6874997 0 0 0 19.628906 7.8789062 z M 14.621094 8.2324219 C 12.78751 8.441184 11.013303 8.7516666 9.3085938 9.2128906 C 9.6819057 9.4706152 9.9554698 9.8594846 10.066406 10.310547 C 11.523942 9.9426469 13.043365 9.684487 14.617188 9.5 C 14.545938 9.3034254 14.499875 9.0948871 14.5 8.875 C 14.499925 8.6488754 14.545969 8.433684 14.621094 8.2324219 z M 8.25 9.5058594 A 1.25 1.2446897 0 0 0 7 10.75 A 1.25 1.2446897 0 0 0 8.25 11.996094 A 1.25 1.2446897 0 0 0 9.5 10.75 A 1.25 1.2446897 0 0 0 8.25 9.5058594 z M 15.123047 10.253906 C 14.932684 10.845906 14.71871 11.428442 14.482422 12.001953 C 14.488622 12.001903 14.49416 12 14.5 12 C 14.904434 12 15.274481 12.137611 15.582031 12.359375 A 5.5 5.5 0 0 1 15.699219 12.316406 C 15.908451 11.796384 16.103434 11.270732 16.277344 10.734375 C 15.835257 10.710875 15.433647 10.534919 15.123047 10.253906 z M 10.095703 11.039062 C 10.026583 11.475412 9.8067431 11.86019 9.4882812 12.142578 C 10.512916 12.698591 11.563933 13.214461 12.644531 13.677734 C 12.691031 13.237335 12.885937 12.839604 13.1875 12.542969 C 12.134 12.090644 11.102864 11.587437 10.095703 11.039062 z M 8.9824219 12.466797 C 8.7562973 12.564047 8.5098369 12.621094 8.25 12.621094 C 8.0542004 12.621094 7.869581 12.578244 7.6914062 12.521484 C 7.858931 13.549894 8.0970256 14.541921 8.3984375 15.496094 C 8.7092869 15.268219 9.0889758 15.128906 9.5 15.128906 C 9.533375 15.128906 9.5647814 15.138025 9.5976562 15.140625 C 9.3303568 14.29179 9.1389965 13.390783 8.9824219 12.466797 z M 14.5 12.625 A 1.25 1.2446897 0 0 0 13.25 13.871094 A 1.25 1.2446897 0 0 0 13.273438 13.992188 A 5.5 5.5 0 0 1 14.871094 12.683594 A 1.25 1.2446897 0 0 0 14.5 12.625 z M 12.664062 14.246094 C 12.063113 14.769392 11.402545 15.216564 10.701172 15.580078 C 11.025347 15.853603 11.256766 16.227505 11.337891 16.658203 C 11.62221 16.507917 11.901338 16.341588 12.175781 16.166016 A 5.5 5.5 0 0 1 12.804688 14.654297 C 12.742903 14.525801 12.693775 14.389315 12.664062 14.246094 z M 9.5 15.755859 A 1.25 1.2446897 0 0 0 8.25 17 A 1.25 1.2446897 0 0 0 9.5 18.246094 A 1.25 1.2446897 0 0 0 10.75 17 A 1.25 1.2446897 0 0 0 9.5 15.755859 z M 7.6601562 16.679688 C 7.4790814 16.725316 7.2932715 16.789563 7.1152344 16.826172 C 6.3358449 16.986414 5.6251266 17.058774 4.9707031 17.099609 A 8.6874997 8.6874997 0 0 0 5.9960938 18.261719 C 6.4377357 18.209209 6.8890184 18.150995 7.3671875 18.052734 C 7.5338371 18.018484 7.7092941 17.956485 7.8789062 17.916016 C 7.7226066 17.643629 7.6248875 17.3339 7.625 17 C 7.6249625 16.89075 7.6419066 16.783961 7.6601562 16.679688 z M 10.929688 18.189453 C 10.653976 18.518065 10.276231 18.754826 9.8398438 18.835938 C 10.023866 19.150312 10.455027 19.930686 10.84375 20.595703 A 8.6874997 8.6874997 0 0 0 12 20.6875 A 8.6874997 8.6874997 0 0 0 12.347656 20.660156 C 11.983316 20.134358 11.176728 18.62762 10.929688 18.189453 z " />
  <path
     id="path981"
     style="fill:#808080;fill-opacity:1;fill-rule:evenodd;stroke-width:0.5;stroke-linecap:round;stroke-linejoin:round"
     d="m 17.5,13 c -2.485279,0 -4.5,2.014721 -4.5,4.5 0,2.485279 2.014721,4.5 4.5,4.5 2.485279,0 4.5,-2.014721 4.5,-4.5 0,-2.485279 -2.014721,-4.5 -4.5,-4.5 z m -1.646484,2.146484 1.646484,1.646485 1.646484,-1.646485 0.707032,0.707032 -1.646485,1.646484 1.646485,1.646484 -0.707032,0.707032 -1.646484,-1.646485 -1.646484,1.646485 -0.707032,-0.707032 1.646485,-1.646484 -1.646485,-1.646484 z" />
</svg>

<svg height="24" width="24" xmlns="http://www.w3.org/2000/svg"><path style="color:#000;font-style:normal;font-variant:normal;font-weight:400;font-stretch:normal;font-size:medium;line-height:normal;font-family:sans-serif;font-variant-ligatures:normal;font-variant-position:normal;font-variant-caps:normal;font-variant-numeric:normal;font-variant-alternates:normal;font-feature-settings:normal;text-indent:0;text-align:start;text-decoration:none;text-decoration-line:none;text-decoration-style:solid;text-decoration-color:#000;letter-spacing:normal;word-spacing:normal;text-transform:none;writing-mode:lr-tb;direction:ltr;text-orientation:mixed;dominant-baseline:auto;baseline-shift:baseline;text-anchor:start;white-space:normal;shape-padding:0;clip-rule:nonzero;display:inline;overflow:visible;visibility:visible;opacity:1;isolation:auto;mix-blend-mode:normal;color-interpolation:sRGB;color-interpolation-filters:linearRGB;solid-color:#000;solid-opacity:1;fill:gray;fill-opacity:1;stroke:none;stroke-width:1;stroke-linecap:butt;stroke-linejoin:miter;stroke-miterlimit:4;stroke-dasharray:none;stroke-dashoffset:0;stroke-opacity:1;color-rendering:auto;image-rendering:auto;shape-rendering:auto;text-rendering:auto;enable-background:accumulate" d="M12 2A10 10 0 0 0 2 12a10 10 0 0 0 10 10 10 10 0 0 0 2.043-.236 5.5 5.5 0 0 1-.846-.858A9 9 0 0 1 12 21a9 9 0 0 1-9-9 9 9 0 0 1 9-9 9 9 0 0 1 9 9 9 9 0 0 1-.094 1.184 5.5 5.5 0 0 1 .86.847A10 10 0 0 0 22 12 10 10 0 0 0 12 2zM8.584 4.041a8.687 8.687 0 0 0-1.143.596 41.563 41.563 0 0 0-.07 4.474c.264-.142.56-.232.879-.232.127 0 .251.017.371.04a39.889 39.889 0 0 1 .102-4.866l-.139-.012zm-.338.074a8.75 8.75 0 0 0-.36.178c.119-.063.24-.12.36-.178zm7.875.256a20.466 20.466 0 0 1-.252 2.715c.162-.046.33-.08.506-.08.268 0 .52.06.752.162.102-.657.168-1.323.213-1.994a8.687 8.687 0 0 0-1.219-.803zM4.55 7.588a8.687 8.687 0 0 0-.565 1.137 76.763 76.763 0 0 0 2.264 1.515 21.763 21.763 0 0 0-2.912 1.496 8.687 8.687 0 0 0-.022.264 8.687 8.687 0 0 0 .09 1.14A20.487 20.487 0 0 1 6.54 11.5a1.835 1.835 0 0 1-.164-.75c0-.597.29-1.125.732-1.469A86.085 86.085 0 0 1 4.55 7.588zm11.826.043a1.25 1.245 0 0 0-1.25 1.244 1.25 1.245 0 0 0 1.25 1.246 1.25 1.245 0 0 0 1.25-1.246 1.25 1.245 0 0 0-1.25-1.244zm-12.06.217a8.75 8.75 0 0 0-.137.248c.043-.085.09-.165.136-.248zm15.314.03c-.545.024-1.1.037-1.637.07.16.274.258.588.258.927 0 .106-.014.21-.031.31.638-.036 1.302-.053 1.955-.078a8.687 8.687 0 0 0-.545-1.228zm-5.008.354c-1.833.21-3.608.52-5.312.98.373.259.646.647.757 1.099a35.472 35.472 0 0 1 4.551-.811 1.824 1.824 0 0 1-.117-.625c0-.226.046-.441.121-.643zM8.25 9.506A1.25 1.245 0 0 0 7 10.75a1.25 1.245 0 0 0 1.25 1.246A1.25 1.245 0 0 0 9.5 10.75a1.25 1.245 0 0 0-1.25-1.244zm6.873.748c-.19.592-.404 1.174-.64 1.748L14.5 12c.404 0 .774.138 1.082.36a5.5 5.5 0 0 1 .117-.044c.21-.52.404-1.045.578-1.582a1.861 1.861 0 0 1-1.154-.48zm-5.027.785c-.07.436-.29.821-.608 1.104a38.084 38.084 0 0 0 3.157 1.535 1.86 1.86 0 0 1 .543-1.135 36.969 36.969 0 0 1-3.092-1.504zm-1.114 1.428a1.848 1.848 0 0 1-.732.154 1.83 1.83 0 0 1-.559-.1 21.3 21.3 0 0 0 .707 2.975A1.86 1.86 0 0 1 9.5 15.13c.033 0 .065.009.098.012-.268-.85-.459-1.75-.616-2.674zm5.518.158a1.25 1.245 0 0 0-1.25 1.246 1.25 1.245 0 0 0 .023.121 5.5 5.5 0 0 1 1.598-1.308 1.25 1.245 0 0 0-.371-.059zm-1.836 1.621a9.99 9.99 0 0 1-1.963 1.334c.324.274.556.648.637 1.078.284-.15.563-.316.838-.492a5.5 5.5 0 0 1 .629-1.512 1.776 1.776 0 0 1-.14-.408zM9.5 15.756A1.25 1.245 0 0 0 8.25 17a1.25 1.245 0 0 0 1.25 1.246A1.25 1.245 0 0 0 10.75 17a1.25 1.245 0 0 0-1.25-1.244zm-1.84.924c-.18.045-.367.11-.545.146-.78.16-1.49.233-2.144.274a8.687 8.687 0 0 0 1.025 1.162c.442-.053.893-.111 1.371-.21.167-.034.342-.096.512-.136A1.833 1.833 0 0 1 7.625 17c0-.11.017-.216.035-.32zm3.27 1.51a1.87 1.87 0 0 1-1.09.646c.184.314.615 1.095 1.004 1.76a8.687 8.687 0 0 0 1.156.091 8.687 8.687 0 0 0 .348-.027c-.365-.526-1.171-2.032-1.418-2.47z"/><path style="fill:gray;fill-opacity:1;stroke-width:.5;stroke-linecap:round;stroke-linejoin:round" d="M17.5 13a4.5 4.5 0 1 0 0 9 4.5 4.5 0 0 0 0-9zm-1.646 2.146 1.646 1.647 1.646-1.647.708.708-1.647 1.646 1.647 1.646-.708.708-1.646-1.647-1.646 1.647-.708-.708 1.647-1.646-1.647-1.646z"/></svg>
